Simply-White-Circles/scalable/apps/akonaditray.svg

<?xml version="1.0" encoding="UTF-8" standalone="no"?><svg xmlns:dc="http://purl.org/dc/elements/1.1/" xmlns:cc="http://creativecommons.org/ns#" xmlns:rdf="http://www.w3.org/1999/02/22-rdf-syntax-ns#" xmlns="http://www.w3.org/2000/svg" width="48" height="48" viewBox="0 0 12.7 12.7"><metadata><rdf:RDF><cc:Work><dc:format>image/svg+xml</dc:format><dc:type rdf:resource="http://purl.org/dc/dcmitype/StillImage"/><dc:title/></cc:Work></rdf:RDF></metadata><path d="M6.35.06a6.29 6.29 0 0 0-6.29 6.3 6.29 6.29 0 0 0 6.29 6.28 6.29 6.29 0 0 0 6.29-6.29A6.29 6.29 0 0 0 6.35.06zM6.33 1a5.4 5.4 0 0 1 5.4 5.4 5.4 5.4 0 0 1-5.4 5.41 5.4 5.4 0 0 1-5.4-5.4A5.4 5.4 0 0 1 6.33 1z" fill="#e6e6e6"/><path style="marker:none" d="M6.35 1.74a4.61 4.61 0 0 0-.33 0 4.61 4.61 0 0 0-.45.06 4.61 4.61 0 0 0-.45.1 4.61 4.61 0 0 0-.44.15 4.61 4.61 0 0 0-.42.19 4.61 4.61 0 0 0-.4.23 4.61 4.61 0 0 0-.38.27 4.61 4.61 0 0 0-.34.3 4.61 4.61 0 0 0-.32.34 4.61 4.61 0 0 0-.28.36 4.61 4.61 0 0 0-.24.4 4.61 4.61 0 0 0-.2.41 4.61 4.61 0 0 0-.16.44 4.61 4.61 0 0 0-.11.44 4.61 4.61 0 0 0-.07.46 4.61 4.61 0 0 0-.02.46 4.61 4.61 0 0 0 0 .32 4.61 4.61 0 0 0 .06.46 4.61 4.61 0 0 0 .1.45 4.61 4.61 0 0 0 .15.44 4.61 4.61 0 0 0 .19.42 4.61 4.61 0 0 0 .23.4 4.61 4.61 0 0 0 .27.38 4.61 4.61 0 0 0 .3.34 4.61 4.61 0 0 0 .34.32 4.61 4.61 0 0 0 .36.28 4.61 4.61 0 0 0 .4.24 4.61 4.61 0 0 0 .41.2 4.61 4.61 0 0 0 .44.16 4.61 4.61 0 0 0 .44.11 4.61 4.61 0 0 0 .46.07 4.61 4.61 0 0 0 .46.02 4.61 4.61 0 0 0 .33 0 4.61 4.61 0 0 0 .45-.06 4.61 4.61 0 0 0 .45-.1 4.61 4.61 0 0 0 .44-.15 4.61 4.61 0 0 0 .42-.19 4.61 4.61 0 0 0 .4-.23 4.61 4.61 0 0 0 .38-.27 4.61 4.61 0 0 0 .34-.3 4.61 4.61 0 0 0 .32-.34 4.61 4.61 0 0 0 .28-.37 4.61 4.61 0 0 0 .24-.39 4.61 4.61 0 0 0 .2-.41 4.61 4.61 0 0 0 .16-.44 4.61 4.61 0 0 0 .11-.44 4.61 4.61 0 0 0 .07-.46 4.61 4.61 0 0 0 .02-.46 4.61 4.61 0 0 0 0-.33 4.61 4.61 0 0 0-.06-.46 4.61 4.61 0 0 0-.1-.45 4.61 4.61 0 0 0-.15-.43 4.61 4.61 0 0 0-.19-.42 4.61 4.61 0 0 0-.23-.4 4.61 4.61 0 0 0-.27-.38 4.61 4.61 0 0 0-.3-.35 4.61 4.61 0 0 0-.34-.31 4.61 4.61 0 0 0-.37-.28 4.61 4.61 0 0 0-.39-.24 4.61 4.61 0 0 0-.41-.2 4.61 4.61 0 0 0-.44-.16 4.61 4.61 0 0 0-.44-.11 4.61 4.61 0 0 0-.46-.07 4.61 4.61 0 0 0-.46-.02z" color="#000" overflow="visible" opacity=".5" fill="#acf"/><path style="marker:none" d="M4.18 2.29a4.61 4.61 0 0 0-.32.18 4.61 4.61 0 0 0-.38.27 4.61 4.61 0 0 0-.34.3 4.61 4.61 0 0 0-.32.34 4.61 4.61 0 0 0-.28.37 4.61 4.61 0 0 0-.24.39 4.61 4.61 0 0 0-.2.41 4.61 4.61 0 0 0-.16.44 4.61 4.61 0 0 0-.11.44 4.61 4.61 0 0 0-.07.46 4.61 4.61 0 0 0-.02.46 4.61 4.61 0 0 0 0 .33 4.61 4.61 0 0 0 .06.45 4.61 4.61 0 0 0 .1.45 4.61 4.61 0 0 0 .15.44 4.61 4.61 0 0 0 .19.42 4.61 4.61 0 0 0 .23.4 4.61 4.61 0 0 0 .27.38 4.61 4.61 0 0 0 .3.34 4.61 4.61 0 0 0 .34.32 4.61 4.61 0 0 0 .36.28 4.61 4.61 0 0 0 .4.24 4.61 4.61 0 0 0 .41.2 4.61 4.61 0 0 0 .44.16 4.61 4.61 0 0 0 .44.11 4.61 4.61 0 0 0 .46.07 4.61 4.61 0 0 0 .46.02 4.61 4.61 0 0 0 .33 0 4.61 4.61 0 0 0 .45-.06 4.61 4.61 0 0 0 .45-.1 4.61 4.61 0 0 0 .44-.15 4.61 4.61 0 0 0 .42-.19 4.61 4.61 0 0 0 .4-.23 4.61 4.61 0 0 0 .38-.27 4.61 4.61 0 0 0 .34-.3 4.61 4.61 0 0 0 .32-.34 4.61 4.61 0 0 0 .28-.37 4.61 4.61 0 0 0 .24-.39 4.61 4.61 0 0 0 .2-.41 4.61 4.61 0 0 0 .15-.43A6.85 6.85 0 0 1 4.18 2.3z" color="#000" overflow="visible" opacity=".5" fill="#59f"/><path style="marker:none" d="M1.78 5.76a4.61 4.61 0 0 0-.02.13 4.61 4.61 0 0 0-.02.46 4.61 4.61 0 0 0 0 .33 4.61 4.61 0 0 0 .06.45 4.61 4.61 0 0 0 .1.45 4.61 4.61 0 0 0 .15.44 4.61 4.61 0 0 0 .19.42 4.61 4.61 0 0 0 .23.4 4.61 4.61 0 0 0 .27.38 4.61 4.61 0 0 0 .3.34 4.61 4.61 0 0 0 .34.32 4.61 4.61 0 0 0 .36.28 4.61 4.61 0 0 0 .4.24 4.61 4.61 0 0 0 .41.2 4.61 4.61 0 0 0 .44.16 4.61 4.61 0 0 0 .44.11 4.61 4.61 0 0 0 .46.07 4.61 4.61 0 0 0 .46.02 4.61 4.61 0 0 0 .33 0 4.61 4.61 0 0 0 .45-.06 4.61 4.61 0 0 0 .45-.1 4.61 4.61 0 0 0 .44-.15 4.61 4.61 0 0 0 .42-.19 4.61 4.61 0 0 0 .4-.23 4.61 4.61 0 0 0 .38-.27 4.61 4.61 0 0 0 .34-.3 4.61 4.61 0 0 0 .32-.34 4.61 4.61 0 0 0 .28-.36 4.61 4.61 0 0 0 .24-.4 4.61 4.61 0 0 0 .2-.41 4.61 4.61 0 0 0 .16-.44 4.61 4.61 0 0 0 .11-.44 4.61 4.61 0 0 0 .07-.46 4.61 4.61 0 0 0 .02-.46 4.61 4.61 0 0 0 0-.33 4.61 4.61 0 0 0-.01-.05c-1.14.37-2.63.61-4.3.61a13 13 0 0 1-4.87-.82z" color="#000" overflow="visible" opacity=".5" fill="#06f"/></svg>

<?xml version="1.0" encoding="UTF-8" standalone="no"?>
<svg
   xmlns:dc="http://purl.org/dc/elements/1.1/"
   xmlns:cc="http://creativecommons.org/ns#"
   xmlns:rdf="http://www.w3.org/1999/02/22-rdf-syntax-ns#"
   xmlns:svg="http://www.w3.org/2000/svg"
   xmlns="http://www.w3.org/2000/svg"
   xmlns:sodipodi="http://sodipodi.sourceforge.net/DTD/sodipodi-0.dtd"
   xmlns:inkscape="http://www.inkscape.org/namespaces/inkscape"
   width="48"
   height="48"
   viewBox="0 0 12.7 12.7"
   version="1.1"
   id="svg12"
   sodipodi:docname="akonaditray.svg"
   inkscape:version="0.92.4 (5da689c313, 2019-01-14)">
  <defs
     id="defs16" />
  <sodipodi:namedview
     pagecolor="#ffffff"
     bordercolor="#666666"
     borderopacity="1"
     objecttolerance="10"
     gridtolerance="10"
     guidetolerance="10"
     inkscape:pageopacity="0"
     inkscape:pageshadow="2"
     inkscape:window-width="1087"
     inkscape:window-height="480"
     id="namedview14"
     showgrid="false"
     inkscape:zoom="4.9166667"
     inkscape:cx="2.1355932"
     inkscape:cy="24"
     inkscape:window-x="0"
     inkscape:window-y="25"
     inkscape:window-maximized="0"
     inkscape:current-layer="svg12" />
  <metadata
     id="metadata2">
    <rdf:RDF>
      <cc:Work>
        <dc:format>image/svg+xml</dc:format>
        <dc:type
           rdf:resource="http://purl.org/dc/dcmitype/StillImage" />
        <dc:title></dc:title>
      </cc:Work>
    </rdf:RDF>
  </metadata>
  <path
     d="M 6.35,0.06 A 6.29,6.29 0 0 0 0.06,6.36 6.29,6.29 0 0 0 6.35,12.64 6.29,6.29 0 0 0 12.64,6.35 6.29,6.29 0 0 0 6.35,0.06 Z M 6.33,1 a 5.4,5.4 0 0 1 5.4,5.4 5.4,5.4 0 0 1 -5.4,5.41 A 5.4,5.4 0 0 1 0.93,6.41 5.4,5.4 0 0 1 6.33,1 Z"
     id="path4"
     inkscape:connector-curvature="0"
     style="fill:#e6e6e6" />
  <path
     style="color:#000000;overflow:visible;opacity:0.5;fill:#aaccff;marker:none"
     d="M 6.35,1.74 A 4.61,4.61 0 0 0 6.02,1.74 4.61,4.61 0 0 0 5.57,1.8 4.61,4.61 0 0 0 5.12,1.9 4.61,4.61 0 0 0 4.68,2.05 4.61,4.61 0 0 0 4.26,2.24 4.61,4.61 0 0 0 3.86,2.47 4.61,4.61 0 0 0 3.48,2.74 4.61,4.61 0 0 0 3.14,3.04 4.61,4.61 0 0 0 2.82,3.38 4.61,4.61 0 0 0 2.54,3.74 4.61,4.61 0 0 0 2.3,4.14 4.61,4.61 0 0 0 2.1,4.55 4.61,4.61 0 0 0 1.94,4.99 4.61,4.61 0 0 0 1.83,5.43 4.61,4.61 0 0 0 1.76,5.89 4.61,4.61 0 0 0 1.74,6.35 a 4.61,4.61 0 0 0 0,0.32 4.61,4.61 0 0 0 0.06,0.46 4.61,4.61 0 0 0 0.1,0.45 4.61,4.61 0 0 0 0.15,0.44 4.61,4.61 0 0 0 0.19,0.42 4.61,4.61 0 0 0 0.23,0.4 4.61,4.61 0 0 0 0.27,0.38 4.61,4.61 0 0 0 0.3,0.34 4.61,4.61 0 0 0 0.34,0.32 4.61,4.61 0 0 0 0.36,0.28 4.61,4.61 0 0 0 0.4,0.24 4.61,4.61 0 0 0 0.41,0.2 4.61,4.61 0 0 0 0.44,0.16 4.61,4.61 0 0 0 0.44,0.11 4.61,4.61 0 0 0 0.46,0.07 4.61,4.61 0 0 0 0.46,0.02 4.61,4.61 0 0 0 0.33,0 A 4.61,4.61 0 0 0 7.13,10.9 4.61,4.61 0 0 0 7.58,10.8 4.61,4.61 0 0 0 8.02,10.65 4.61,4.61 0 0 0 8.44,10.46 4.61,4.61 0 0 0 8.84,10.23 4.61,4.61 0 0 0 9.22,9.96 4.61,4.61 0 0 0 9.56,9.66 4.61,4.61 0 0 0 9.88,9.32 4.61,4.61 0 0 0 10.16,8.95 4.61,4.61 0 0 0 10.4,8.56 4.61,4.61 0 0 0 10.6,8.15 4.61,4.61 0 0 0 10.76,7.71 4.61,4.61 0 0 0 10.87,7.27 4.61,4.61 0 0 0 10.94,6.81 4.61,4.61 0 0 0 10.96,6.35 4.61,4.61 0 0 0 10.96,6.02 4.61,4.61 0 0 0 10.9,5.56 4.61,4.61 0 0 0 10.8,5.11 4.61,4.61 0 0 0 10.65,4.68 4.61,4.61 0 0 0 10.46,4.26 4.61,4.61 0 0 0 10.23,3.86 4.61,4.61 0 0 0 9.96,3.48 4.61,4.61 0 0 0 9.66,3.13 4.61,4.61 0 0 0 9.32,2.82 4.61,4.61 0 0 0 8.95,2.54 4.61,4.61 0 0 0 8.56,2.3 4.61,4.61 0 0 0 8.15,2.1 4.61,4.61 0 0 0 7.71,1.94 4.61,4.61 0 0 0 7.27,1.83 4.61,4.61 0 0 0 6.81,1.76 4.61,4.61 0 0 0 6.35,1.74 Z"
     overflow="visible"
     id="path6"
     inkscape:connector-curvature="0" />
  <path
     style="color:#000000;overflow:visible;opacity:0.5;fill:#5599ff;marker:none"
     d="M 4.18,2.29 A 4.61,4.61 0 0 0 3.86,2.47 4.61,4.61 0 0 0 3.48,2.74 4.61,4.61 0 0 0 3.14,3.04 4.61,4.61 0 0 0 2.82,3.38 4.61,4.61 0 0 0 2.54,3.75 4.61,4.61 0 0 0 2.3,4.14 4.61,4.61 0 0 0 2.1,4.55 4.61,4.61 0 0 0 1.94,4.99 4.61,4.61 0 0 0 1.83,5.43 4.61,4.61 0 0 0 1.76,5.89 4.61,4.61 0 0 0 1.74,6.35 a 4.61,4.61 0 0 0 0,0.33 4.61,4.61 0 0 0 0.06,0.45 4.61,4.61 0 0 0 0.1,0.45 4.61,4.61 0 0 0 0.15,0.44 4.61,4.61 0 0 0 0.19,0.42 4.61,4.61 0 0 0 0.23,0.4 4.61,4.61 0 0 0 0.27,0.38 4.61,4.61 0 0 0 0.3,0.34 4.61,4.61 0 0 0 0.34,0.32 4.61,4.61 0 0 0 0.36,0.28 4.61,4.61 0 0 0 0.4,0.24 4.61,4.61 0 0 0 0.41,0.2 4.61,4.61 0 0 0 0.44,0.16 4.61,4.61 0 0 0 0.44,0.11 4.61,4.61 0 0 0 0.46,0.07 4.61,4.61 0 0 0 0.46,0.02 4.61,4.61 0 0 0 0.33,0 A 4.61,4.61 0 0 0 7.13,10.9 4.61,4.61 0 0 0 7.58,10.8 4.61,4.61 0 0 0 8.02,10.65 4.61,4.61 0 0 0 8.44,10.46 4.61,4.61 0 0 0 8.84,10.23 4.61,4.61 0 0 0 9.22,9.96 4.61,4.61 0 0 0 9.56,9.66 4.61,4.61 0 0 0 9.88,9.32 4.61,4.61 0 0 0 10.16,8.95 4.61,4.61 0 0 0 10.4,8.56 4.61,4.61 0 0 0 10.6,8.15 4.61,4.61 0 0 0 10.75,7.72 6.85,6.85 0 0 1 4.18,2.3 Z"
     overflow="visible"
     id="path8"
     inkscape:connector-curvature="0" />
  <path
     style="color:#000000;overflow:visible;opacity:0.5;fill:#0066ff;marker:none"
     d="m 1.78,5.76 a 4.61,4.61 0 0 0 -0.02,0.13 4.61,4.61 0 0 0 -0.02,0.46 4.61,4.61 0 0 0 0,0.33 4.61,4.61 0 0 0 0.06,0.45 4.61,4.61 0 0 0 0.1,0.45 4.61,4.61 0 0 0 0.15,0.44 4.61,4.61 0 0 0 0.19,0.42 4.61,4.61 0 0 0 0.23,0.4 4.61,4.61 0 0 0 0.27,0.38 4.61,4.61 0 0 0 0.3,0.34 4.61,4.61 0 0 0 0.34,0.32 4.61,4.61 0 0 0 0.36,0.28 4.61,4.61 0 0 0 0.4,0.24 4.61,4.61 0 0 0 0.41,0.2 4.61,4.61 0 0 0 0.44,0.16 4.61,4.61 0 0 0 0.44,0.11 4.61,4.61 0 0 0 0.46,0.07 4.61,4.61 0 0 0 0.46,0.02 4.61,4.61 0 0 0 0.33,0 4.61,4.61 0 0 0 0.45,-0.06 4.61,4.61 0 0 0 0.45,-0.1 4.61,4.61 0 0 0 0.44,-0.15 4.61,4.61 0 0 0 0.42,-0.19 4.61,4.61 0 0 0 0.4,-0.23 4.61,4.61 0 0 0 0.38,-0.27 4.61,4.61 0 0 0 0.34,-0.3 4.61,4.61 0 0 0 0.32,-0.34 4.61,4.61 0 0 0 0.28,-0.36 4.61,4.61 0 0 0 0.24,-0.4 4.61,4.61 0 0 0 0.2,-0.41 4.61,4.61 0 0 0 0.16,-0.44 4.61,4.61 0 0 0 0.11,-0.44 4.61,4.61 0 0 0 0.07,-0.46 4.61,4.61 0 0 0 0.02,-0.46 4.61,4.61 0 0 0 0,-0.33 4.61,4.61 0 0 0 -0.01,-0.05 C 9.81,6.34 8.32,6.58 6.65,6.58 4.69,6.58 2.95,6.26 1.78,5.76 Z"
     overflow="visible"
     id="path10"
     inkscape:connector-curvature="0" />
</svg>
